X:1
T:Title
%%score { ( 1 3 ) | ( 2 4 ) }
L:1/8
M:4/4
K:F
V:1 treble nm="Grand Piano"
V:3 treble 
V:2 bass 
V:4 bass 
V:1
 z4 z2[Q:1/4=100] FG | Acdc [Ec][EB]DE | F6 FG | Acdc [Fc][FA][FG][FA] | [EG]6 CC | %5
 [EB][FB][GB][FB] [EB]2 [EA][EG] | AAAB c2 cd | cAGF [B,DG][DGB] [CFA]>[B,EG] |[M:3/4] [A,F]6 | %9
[M:1/4] [A,F]>[A,_EF] |[M:4/4] [B,DB]2 [DB]2 [DB][DB][DF][DG] | A6 z2 | G2 c2 cd[Fc][F=B] | %13
[M:9/8] c6- c z z |[M:4/4] AAAG FAc_e | d6 [Fd][Fd] | [Fc][CFA][DFB][FA] [EA]2 [EG]2 | %17
[M:3/4] [CF]6 |] %18
V:2
 z4 z2 [F,A,C][F,B,C] | [F,CF][F,A,F][F,B,F][F,A,F] [C,G,][C,G,][C,B,C][C,B,C] | %2
 [F,A,C]6 [F,A,C][F,B,C] | [F,CF][F,A,F][F,B,F][F,A,F] [D,D][D,D][G,=B,][G,B,] | %4
 [C,C]6 [C,E,][C,E,] | [C,G,][D,C][E,C][F,D] [G,C]2 [C,C][C,C] | %6
 [F,CF][F,CF][F,CF][G,CE] [A,CF]2[K:bass] [F,A,F][F,B,F] | %7
 [F,A,F][F,CF][F,B,C][F,A,C] B,,B,, C,>C, |[M:3/4] F,6 |[M:1/4] F,>F, | %10
[M:4/4] B,,2 [B,,F,]2 [B,,F,][B,,F,][B,,F,][B,,F,] | [F,,F,]2 A,,[C,C] [F,C]2 [F,CF]>[F,CF] | %12
 [G,CE]2 [G,E]2 [G,E][G,E][G,,G,][G,,G,] |[M:9/8] .G,6 z3 | %14
[M:4/4] [F,CF][F,CF][F,CF][F,B,C] [F,A,C][K:treble][F,CF][A,CF][A,CF] | %15
 [B,F]6[K:bass] [B,,B,][B,,B,] | [C,A,]C,C,[C,C] [C,C]2 [B,,B,]2 |[M:3/4] [F,A,]6 |] %18
V:3
 x8 | x8 | x8 | x8 | x8 | x8 | x8 | x8 |[M:3/4] x6 |[M:1/4] x2 |[M:4/4] x8 | C2 [CF]F F2 A>A | x8 | %13
[M:9/8] E2 E F G2- G[GB][GB] |[M:4/4] x8 | x8 | x8 |[M:3/4] x6 |] %18
V:4
 x8 | x8 | x8 | x8 | x8 | x8 | x6[K:bass] x2 | x8 |[M:3/4] x6 |[M:1/4] x2 |[M:4/4] x8 | x8 | x8 | %13
[M:9/8] C,2 C, D, [E,C]2- [E,C][C,C][C,C] |[M:4/4] x5[K:treble] x3 | x6[K:bass] x2 | x8 | %17
[M:3/4] x6 |] %18

